config/expand/iconfont/module-menu/module-caiwushoufei.svg

<?xml version="1.0" encoding="UTF-8"?>
<svg width="19px" height="20px" viewBox="0 0 19 20" version="1.1" xmlns="http://www.w3.org/2000/svg" xmlns:xlink="http://www.w3.org/1999/xlink">
    <!-- Generator: Sketch 53 (72520) - https://sketchapp.com -->
    <title>caiwushoufei</title>
    <desc>Created with Sketch.</desc>
    <defs>
        <linearGradient x1="50%" y1="22.1969058%" x2="50%" y2="100%" id="linearGradient-1">
            <stop stop-color="#B7B7B7" offset="0%"></stop>
            <stop stop-color="#FFFFFF" offset="100%"></stop>
        </linearGradient>
        <linearGradient x1="39.3995664%" y1="0%" x2="39.3995664%" y2="100%" id="linearGradient-2">
            <stop stop-color="#B7B7B7" offset="0%"></stop>
            <stop stop-color="#FFFFFF" offset="100%"></stop>
        </linearGradient>
    </defs>
    <g id="Page-2" stroke="none" stroke-width="1" fill="none" fill-rule="evenodd">
        <g id="图标" transform="translate(-624.000000, -243.000000)">
            <g id="caiwushoufei" transform="translate(624.000000, 243.000000)">
                <path d="M12.5363322,10.5970634 L10.7670127,10.5970634 L10.7670127,9.50334935 L12.5340254,9.50334935 C12.7923875,9.50334935 13,9.28411936 13,9.01129982 L13,8.43399418 C13,8.16117464 12.7923875,7.94194465 12.5340254,7.94194465 L10.7370242,7.94194465 C10.7301038,7.91758576 10.7185698,7.89322688 10.7093426,7.87130388 L12.1672434,6.33182218 C12.455594,6.02733608 12.455594,5.53285067 12.1672434,5.22836457 C11.8788927,4.92387848 11.4106113,4.92387848 11.1222607,5.22836457 L10.0196078,6.39759118 L8.91464821,5.23080046 C8.62629758,4.92631436 8.15801615,4.92631436 7.86966551,5.23080046 C7.58131488,5.53528656 7.58131488,6.02977197 7.86966551,6.33425807 L9.33910035,7.88591921 C9.32987313,7.90540632 9.32295271,7.92245754 9.3160323,7.94194465 L7.46597463,7.94194465 C7.20761246,7.94194465 7,8.16117464 7,8.43399418 L7,9.00886393 C7,9.28168347 7.20761246,9.50091346 7.46597463,9.50091346 L9.28604383,9.50091346 L9.28604383,10.5946275 L7.46597463,10.5946275 C7.20761246,10.5946275 7,10.8138575 7,11.086677 L7,11.6615468 C7,11.9343663 7.20761246,12.1535963 7.46597463,12.1535963 L9.28604383,12.1535963 L9.28604383,13.4592327 C9.28604383,13.758847 9.51441753,14 9.79815456,14 L10.2502884,14 C10.5340254,14 10.7623991,13.758847 10.7623991,13.4592327 L10.7623991,12.1535963 L12.5317186,12.1535963 C12.7900807,12.1535963 12.9976932,11.9343663 12.9976932,11.6615468 L12.9976932,11.0891129 C13.0023068,10.8162934 12.7923875,10.5970634 12.5363322,10.5970634 L12.5363322,10.5970634 Z" id="Path" fill="url(#linearGradient-1)"></path>
                <path d="M9.5,0 C4.25379464,0 0,4.58428149 0,9.54471708 C0,14.5051527 4.25379464,19 9.5,19 C14.7462054,19 19,14.5051527 19,9.54471708 C19,4.58428149 14.7462054,0 9.5,0 Z M12.4191617,16.4104633 C11.4955741,16.800885 10.513408,17 9.5,17 C8.48659203,17 7.50442593,16.8028371 6.58083832,16.4104633 C5.95404842,16.1449766 5.37216871,15.7994534 4.84300963,15.377798 L3.34925801,13.790734 C3.04855506,13.3612702 2.79471492,12.9025247 2.58969018,12.4164498 C2.19916688,11.4931026 2,10.5111921 2,9.49804789 C2,8.4849037 2.19721427,7.50299323 2.58969018,6.57964602 C2.96654517,5.68753254 3.50741994,4.88521603 4.19669357,4.19612181 C4.8859672,3.50702759 5.68849258,2.9662936 6.58083832,2.5895367 C7.50442593,2.19911504 8.48659203,2 9.5,2 C10.513408,2 11.4955741,2.19716294 12.4191617,2.5895367 C13.3115074,2.9662936 14.1140328,3.50702759 14.8033064,4.19612181 C15.4925801,4.88521603 16.0334548,5.68753254 16.4103098,6.57964602 C16.8008331,7.50299323 17,8.4849037 17,9.49804789 C17,10.5111921 16.8027857,11.4931026 16.4103098,12.4164498 C16.0334548,13.3144196 15.4925801,14.114784 14.8033064,14.8038782 C14.1140328,15.4929724 13.3115074,16.0337064 12.4191617,16.4104633 Z" id="Shape" fill="#333333" fill-rule="nonzero"></path>
                <path d="M3.83559991,19.9034577 L4.86961903,19.532057 C4.86961903,19.532057 5.4776514,19.3482711 5.9473291,19.2487204 C6.42428862,19.1568275 7.0650892,19.0572768 7.71681252,19.0572768 C8.91467269,19.0343035 10.2872967,19.8843133 12.3698985,19.8919711 C14.9913555,19.8843133 16.6443297,18.237898 17.8094216,17.6329361 C18.5667314,17.2270756 18.9890773,16.6527447 19,16.0860715 C18.9927182,15.829537 18.8834908,15.5653448 18.6613951,15.37773 C18.4392995,15.1862864 18.1298219,15.0905646 17.794858,15.0905646 C17.3324621,15.0943934 16.8081707,15.2513772 16.2037793,15.5921469 C14.6855188,16.4459855 13.9245681,16.8365306 13.141772,16.8288728 C12.7412716,16.8288728 12.2861576,16.733151 11.6708434,16.5110764 C10.8225108,16.2085954 10.2436057,15.9980074 9.91956451,15.8410236 C9.76664619,15.768275 9.66834155,15.7031842 9.63193243,15.6725532 C9.63557334,15.6687243 9.63921426,15.6687243 9.65377791,15.6648955 C9.69018703,15.6534089 9.77756893,15.6304356 9.90500086,15.6304356 C10.5421605,15.6227779 11.7764298,16.0362961 12.5118941,16.2009377 C12.6975807,16.2392264 12.8759854,16.2545419 13.0434673,16.2545419 C13.9063636,16.250713 14.6272642,15.7606173 14.634546,15.0637624 C14.6309051,14.4281696 14.0192319,13.8997851 12.9961355,13.6815394 C11.3285976,13.3139676 10.5203151,13.0114866 9.33337762,13 C9.02390006,13 8.69257704,13.0229732 8.32120397,13.0727486 C5.84902446,13.3982028 2.59404879,15.7835905 2.55399875,15.7912483 L2.24816211,16.009494 L1.05030194,16.7905841 C0.48960143,15.9482321 4.82228717,20.7304942 3.83559991,19.9034577 Z" id="Shape" fill="url(#linearGradient-2)"></path>
            </g>
        </g>
    </g>
</svg>

<svg width="19" height="20" xmlns="http://www.w3.org/2000/svg"><defs><linearGradient x1="50%" y1="22.197%" x2="50%" y2="100%" id="a"><stop stop-color="#B7B7B7" offset="0%"/><stop stop-color="#FFF" offset="100%"/></linearGradient><linearGradient x1="39.4%" y1="0%" x2="39.4%" y2="100%" id="b"><stop stop-color="#B7B7B7" offset="0%"/><stop stop-color="#FFF" offset="100%"/></linearGradient></defs><g><path d="M12.536 10.597h-1.769V9.503h1.767c.258 0 .466-.219.466-.492v-.577a.478.478 0 00-.466-.492h-1.797c-.007-.024-.018-.049-.028-.07l1.458-1.54a.812.812 0 000-1.104.712.712 0 00-1.045 0l-1.102 1.17L8.915 5.23a.712.712 0 00-1.045 0 .812.812 0 000 1.103l1.47 1.552a.574.574 0 00-.024.056h-1.85A.478.478 0 007 8.434v.575c0 .273.208.492.466.492h1.82v1.094h-1.82a.478.478 0 00-.466.492v.575c0 .272.208.492.466.492h1.82v1.305c0 .3.228.541.512.541h.452a.526.526 0 00.512-.54v-1.306h1.77c.258 0 .466-.22.466-.492v-.573a.473.473 0 00-.462-.492z"/><path d="M9.5 0C4.254 0 0 4.584 0 9.545 0 14.505 4.254 19 9.5 19S19 14.505 19 9.545 14.746 0 9.5 0zm2.92 16.41c-.924.39-1.907.59-2.92.59a7.422 7.422 0 01-2.92-.59 7.432 7.432 0 01-1.737-1.032L3.349 13.79A7.452 7.452 0 012 9.498a7.464 7.464 0 012.197-5.302A7.466 7.466 0 019.5 2c1.013 0 1.996.197 2.92.59a7.466 7.466 0 012.383 1.606A7.464 7.464 0 0117 9.498a7.417 7.417 0 01-.59 2.918 7.417 7.417 0 01-1.607 2.388 7.466 7.466 0 01-2.384 1.606z"/><path d="M3.836 19.903l1.034-.37s.608-.185 1.077-.284a9.56 9.56 0 011.77-.192c1.198-.023 2.57.827 4.653.835 2.621-.008 4.274-1.654 5.44-2.26.757-.405 1.18-.98 1.19-1.546a.96.96 0 00-.339-.708c-.222-.192-.531-.287-.866-.287-.463.003-.987.16-1.591.501-1.518.854-2.28 1.245-3.062 1.237-.4 0-.856-.096-1.471-.318-.848-.302-1.427-.513-1.751-.67a1.525 1.525 0 01-.288-.168c.004-.004.007-.004.022-.008a.846.846 0 01.251-.035c.637-.007 1.871.406 2.607.57.186.04.364.055.531.055.863-.004 1.584-.494 1.592-1.191-.004-.636-.616-1.164-1.639-1.382-1.667-.368-2.476-.67-3.663-.682-.31 0-.64.023-1.012.073-2.472.325-5.727 2.71-5.767 2.718l-.306.218-1.198.782c-.56-.843 3.772 3.94 2.786 3.112z"/></g></svg>
